X: 3
T: The High Part Of The Road
R: jig
M: 6/8
L: 1/8
K: Gmaj
|:[BD]2(B B{d}c{B}c)|ded {cd}cAG|E{A}F{D}F DD/D/D|DG(D (3EFG)A|
(3B{d}B{A}BD B{d}c{B}c|dc(A (3Bcd)e|{fa} fed {cd}cAF|AGF ~G3:|
(3g{a}g{f}g(B B)dg|gdg ba(g|(3f{a}f{e}f)A {fa}f{e}fA|{ab}afd cAG|
f{a}g{f}g Bdg|{a}gdg bag|{fa} fed cAF|AGF GBd|
{ga}g{e}gB {ga}g{e}gB|~g3 bag|e{a}f{e}f dfa|{b}afd {cd}cAG|
(3f{a}g{f}g(B B)dg|gdg bag|{fa}fed {cd}cAF|AGF F/F/GD||

